!!!COM: Music21
!!!OTL: hornpipe_Whistlin-October
!!!OMV: hornpipe_Whistlin-October
**kern
*clefG2
*k[f#c#]
*D:
*M4/4
=1
8e
=||
8f#L
8bJ
8bL
8cc#J
16cc#LL
16bJ
8aJ
8f#L
8eJ
=
8f#L
8bJ
8bL
8cc#J
16cc#LL
16bJ
8aJ
8bL
8cc#J
=
12ddL
12dd
12ddJ
8ddL
8ff#J
8eeL
8ddJ
8cc#L
8bJ
=
12aL
12a
12aJ
8aL
8bJ
8cc#L
8aJ
8bL
8aJ
!!linebreak:original
=
8f#L
8bJ
8bL
8cc#J
8bL
8aJ
8f#L
8eJ
=
8f#L
8bJ
8bL
8cc#J
8bL
8aJ
8bL
8cc#J
=
12ddL
12dd
12ddJ
8ddL
8ff#J
8eeL
8ddJ
8cc#L
8bJ
=
8aL
8bJ
8cc#L
8aJ
4.b
8e
=||
8f#L
8bJ
8bL
8cc#J
16cc#LL
16bJ
8aJ
8f#L
8eJ
!!linebreak:original
=
8f#L
8bJ
8bL
8cc#J
16cc#LL
16bJ
8aJ
8bL
8cc#J
=
12ddL
12dd
12ddJ
8ddL
8ff#J
8eeL
8ddJ
8cc#L
8bJ
=
12aL
12a
12aJ
8aL
8bJ
8cc#L
8aJ
8bL
8aJ
=
8f#L
8bJ
8bL
8cc#J
8bL
8aJ
8f#L
8eJ
=
8f#L
8bJ
8bL
8cc#J
8bL
8aJ
8bL
8cc#J
!!linebreak:original
=
12ddL
12dd
12ddJ
8ddL
8ff#J
8eeL
8ddJ
8cc#L
8bJ
=
8aL
8bJ
8cc#L
8aJ
4.dd
8ee
=||
4ff#
8ff#L
8ggJ
4aa
8aaL
8ggJ
=
8ff#L
8eeJ
8ff#L
8ggJ
8aaL
8ff#J
8ddL
8ff#J
=
4ee
8eeL
8ddJ
4cc#
8cc#L
8bJ
!!linebreak:original
=
8aL
8bJ
8cc#L
8ddJ
8eeL
8ff#J
8ggL
8aaJ
=
4ff#
8ff#L
8eeJ
4dd
8ddL
8eeJ
=
8ff#L
8eeJ
8ff#L
8ggJ
8aaL
8ff#J
8ddL
8ff#J
=
8eeL
8ddJ
8cc#L
8bJ
8aL
8bJ
8cc#L
8aJ
=
4b
8bL
8aJ
4.b
8cc#
=
4dd
8ddL
8eeJ
4ff#
8ff#L
8eeJ
!!linebreak:original
=
8ff#L
8eeJ
8ff#L
8ggJ
8aaL
8ff#J
8ddL
8ff#J
=
4ee
8eeL
8ddJ
4cc#
8cc#L
8bJ
=
8aL
8bJ
8cc#L
8ddJ
8eeL
8ff#J
8ggL
8aaJ
=
4ff#
8ff#L
8eeJ
4dd
8ddL
8eeJ
=
8ff#L
8eeJ
8ff#L
8ggJ
8aaL
8ff#J
8ddL
8ff#J
!!linebreak:original
=
8eeL
8ddJ
8cc#L
8bJ
8aL
8bJ
8cc#L
8aJ
=
4b
8bL
8aJ
2b
=||
*-
